icons/file-unknow-fill.svg

<svg viewBox="0 0 24 24" fill="currentColor" xmlns="http://www.w3.org/2000/svg">
    <path d="M16 2L21 7V21.0082C21 21.556 20.5551 22 20.0066 22H3.9934C3.44476 22 3 21.5447 3 21.0082V2.9918C3 2.44405 3.44495 2 3.9934 2H16ZM11 15V17H13V15H11ZM13 13.3551C14.4457 12.9248 15.5 11.5855 15.5 10C15.5 8.067 13.933 6.5 12 6.5C10.302 6.5 8.88637 7.70919 8.56731 9.31346L10.5288 9.70577C10.6656 9.01823 11.2723 8.5 12 8.5C12.8284 8.5 13.5 9.17157 13.5 10C13.5 10.8284 12.8284 11.5 12 11.5C11.4477 11.5 11 11.9477 11 12.5V14H13V13.3551Z"/>
</svg>

<svg xmlns="http://www.w3.org/2000/svg" viewBox="0 0 24 24">
    <g>
        <path fill="none" d="M0 0h24v24H0z"/>
        <path d="M16 2l5 5v14.008a.993.993 0 0 1-.993.992H3.993A1 1 0 0 1 3 21.008V2.992C3 2.444 3.445 2 3.993 2H16zm-5 13v2h2v-2h-2zm2-1.645A3.502 3.502 0 0 0 12 6.5a3.501 3.501 0 0 0-3.433 2.813l1.962.393A1.5 1.5 0 1 1 12 11.5a1 1 0 0 0-1 1V14h2v-.645z"/>
    </g>
</svg>
